X:150
T:Eavesdropper, The
R:jig
H:Also played in A, #155
D:Paddy Keenan: Port an Phiobaire
D:Dolores Keane & John Faulkner: Broken Hearted I'll Wander
Z:id:hn-jig-150
M:6/8
K:G
G2B BAG|Bdd dBG|cee dBG|BAA ABA|GBB BAG|Bdd dBG|cee dBA|1 BGF G2D:|2 BGF GBd||
|:~g3 afd|efg dBG|cee dBG|BAA ABd|g2b afd|efg dBG|cee dBA|1 BGF GBd:|2 BGF G2E||
P:Variations:
DBB BAG|Bde dBG|ceg dBG|BAG AGE|DBB BAG|Bde dBG|ceg dBA|BGF G2D||
~G3 BAG|~B3 dBG|cBc dBG|~A3 BGD|G2B BAG|Bde dBG|ceg dBA|BGF GBd||
gab afd|efg dBG|ceg dBG|BAG ABd|gab afd|efg dBG|ceg dBA|BGF GBd||
~g3 fed|efg dBG|cee dBG|BAA ABd|~g3 fed|ege dBG|cee dBA|BGF G2A||
P:More variations:
|:~B3 BAG|BAB dBG|cde dBG|AGE GED|D2B BAG|BAB dBG|cde dBG|1 AGF G2A:|2 AGF GBd||
|:~g3 fed|ege dBG|cde dBG|BAG ABd|~g3 afd|efg dBG|cde dBG|1 AGF GBd:|2 AGF G2D||

